X: 9258
T: Dan Sullivan's Fancy
R: hornpipe
M: 4/4
K: Gmajor
(3def|:gdBd G2(3def|gece G2 (3def|gdBd G2B2|(3ABA (3GFE D2 (3def|
gdBd G2 (3def|gece G2 (3def|gdBd G2Bd|1 e2f2 g2 (3def:|2 e2f2 g4||
|:GABc dBG2|dgfg egfg|GABc dBG2|Ad^cd fd=cA|
GABc dBG2|dgfg egfg|GABc dBG2|1 e2f2 g4:|2 e2f2 g2||

